data/resources/fullscreenui/desktop-mode.svg

<svg viewBox="0 0 24 24" xmlns="http://www.w3.org/2000/svg"><path d="m21 3c.5523 0 1 .44772 1 1v7h-2v-6h-16v14h6v2h-7c-.55228 0-1-.4477-1-1v-16c0-.55228.44772-1 1-1zm0 10c.5523 0 1 .4477 1 1v6c0 .5523-.4477 1-1 1h-8c-.5523 0-1-.4477-1-1v-6c0-.5523.4477-1 1-1zm-9.5-6-2.04289 2.04311 2.24999 2.24979-1.4142 1.4142-2.24979-2.25-2.04311 2.0429v-5.5z" fill="#fff"/></svg>

<svg xmlns="http://www.w3.org/2000/svg" viewBox="0 0 24 24"><path fill="#ffffff" d="M21 3C21.5523 3 22 3.44772 22 4V11H20V5H4V19H10V21H3C2.44772 21 2 20.5523 2 20V4C2 3.44772 2.44772 3 3 3H21ZM21 13C21.5523 13 22 13.4477 22 14V20C22 20.5523 21.5523 21 21 21H13C12.4477 21 12 20.5523 12 20V14C12 13.4477 12.4477 13 13 13H21ZM11.5 7L9.45711 9.04311L11.7071 11.2929L10.2929 12.7071L8.04311 10.4571L6 12.5V7H11.5Z"></path></svg>
